X:1
T:Like an Army We Are Marching
T:William James Kirkpatrick
T:Like an Army We Are Marching
T:Public Domain
T:Public Domain
C:William James Kirkpatrick
Z:Public Domain
%%score ( 1 2 ) ( 3 4 )
L:1/8
M:4/4
K:Ab
V:1 treble 
V:2 treble 
V:3 bass 
V:4 bass 
V:1
 [CE][B,D] | [A,C]2 [CE]2 [CA]2 [CE]2 | [=B,F]4 [CE]2 [CE][CE] | [EA]2 [EA]2 [EB]2 [EB]2 | %4
w: 1.~Like an|ar- my we are|march- ing, In the|serv- ice of the|
w: 2.~Like an|ar- my we are|march- ing, With our|ban- ners, day by|
w: 3.~Like an|ar- my we are|march- ing, Ma- ny|tri- als tho’ we|
 [Ec]6 [Ec][Ec] | [EB]2 [EB]2 [Ac]2 [A=d]2 | [Ge]4 [GB]2 [EG][EG] | [=DB]2 [DB]2 [DA]2 [DF]2 | %8
w: Lord; March- ing|on- ward to the|vic- t’ry He has|prom- ised in His|
w: day; Look- ing|ev- er un- to|Je- sus, Trust- ing|Him to guide our|
w: meet; We shall|count them naught but|bless- ings, When we|rest at Je- sus’|
 (B,2 C2 D4) ||"^Refrain" (C2 C2) (C2 C2) | (E2 E2) (E2 E2) | [Gd]2 [Ac]2 [EB]2 A2 | %12
w: Word. * *|ing, * march- *|ing * brave *|Like an ar- my|
w: way. * *||||
w: feet. * *||||
 (e4 ed)[Gc][GB] | (E2 E2) [CE]2 cc | [FB]4 F2 [Af][Af] | [Ae]2 [EA]2 [EG]2 [EB]2 | [EA]6 |] %17
w: are * * march- ing,|we * sing our hap-||||
w: |||||
w: |||||
V:2
 x2 | x8 | x8 | x8 | x8 | x8 | x8 | x8 | E8 || A4 E4 | c4 A4 | x6 A2 | G6 x2 | A4 E2 x2 | %14
w: ||||||||March-|ing, March-|and strong;|we|While|py song.|
 x4 F2 x2 | x8 | x6 |] %17
w: |||
V:3
 [A,,E,][A,,E,] | [A,,E,]2 [A,,A,]2 [A,,A,]2 [A,,A,]2 | [A,,A,]4 [A,,A,]2 [A,,A,][A,,A,] | %3
w: ~ ~|~ ~ ~ ~|~ ~ ~ ~|
 [C,A,]2 [C,A,]2 [E,G,]2 [E,G,]2 | A,6 A,A, | [G,B,]2 [G,B,]2 [F,B,]2 [F,B,]2 | %6
w: ~ ~ ~ ~|~ ~ ~|~ ~ ~ ~|
 [E,B,]4 [E,E]2 [E,B,][E,B,] | [B,,B,]2 [B,,F,]2 [B,,F,]2 [B,,A,]2 | (G,2 A,2 B,4) || %9
w: ~ ~ ~ ~|~ ~ March- ing,|march- * *|
 [A,,A,]2 [A,,A,]2 [A,,A,]2 [A,,A,]2 | A,2 A,2 [A,C]2 [A,C]2 | [B,E]2 [A,E]2 [G,E]2 [F,=D]2 | %12
w: march- ing, march- ing|~ ~ ~ ~|are march- ing Like|
 [E,E]2 [E,B,][E,B,] [E,B,][E,B,][E,E][E,D] | [A,C]2 [A,C]2 A,2 A,2 | %14
w: an ar- my we are march- ing,|march- ing * *|
 [D,D]2 [D,D]2 [D,A,][D,A,][D,D][D,D] | [E,C]2 [E,C]2 [E,B,]2 [E,D]2 | [A,,A,C]6 |] %17
w: |||
V:4
 x2 | x8 | x8 | x8 | A,6 A,A, | x8 | x8 | x8 | E,8 || x8 | A,2 A,2 x4 | x8 | x8 | x4 A,2 A,2 | x8 | %15
w: ||||~ ~ ~||||ing,||~ we|||||
 x8 | x6 |] %17
w: ||

